X: 118101
T: PETER BAILIE
Q: "Strathspey."
R:  Strathspey.
%R: strathspey
B: James Kerr "Merry Melodies" v.1 p.18 s.1 #1
Z: 2017 John Chambers <jc:trillian.mit.edu>
M: C
L: 1/8
K: Em
|: ue |\
vB<uE vB>uA B<E B>A | F<A D>A d>A B/A/G/F/ |\
B<E B>A B<E B>A | (3B^cd (3FGA BE E :|\
uf |:\
vg>vfue>ub g<e b>ug |
va>vfud>ua f<d a>uf |\
[1 g>fe>b g<e b>g | a>fd>f g<e e>f :|\
[2 (3gab (3efg (3fga (3def | (3B^cd (3FGA B<E E |]

%%sep 1 1 500
%%sep 1 1 500

